X:568
T:Upstairs and to Bed
M:6/8
L:1/8
K:B min
d2 e f2 d | e2 c d2 B | B2 f fdB | BcB fdB |
d2 e f2 d | e2 c d2 B |A2 e ecA | BcB ecA :||:
d2 g faf | efe dfd | B2 f fdB | BcB fdB |
d2 g faf | efe dfd | A2 e ecA | BcB ecA :|
